svg/fluentui-system-icons/ic_fluent_globe_add_20_filled.svg

<svg width="20" height="20" viewBox="0 0 20 20" fill="none" xmlns="http://www.w3.org/2000/svg">
<path d="M7.98747 4.17997C7.71458 4.84269 7.48643 5.62692 7.31842 6.5H12.6816C12.5136 5.62692 12.2854 4.84269 12.0125 4.17997C11.7106 3.44666 11.3637 2.88614 11.0041 2.51675C10.646 2.14894 10.3069 2 10 2C9.69311 2 9.35398 2.14894 8.99591 2.51675C8.6363 2.88614 8.28942 3.44666 7.98747 4.17997ZM7.89053 2.28104C7.57693 2.70725 7.30036 3.22224 7.06279 3.79922C6.74205 4.57814 6.48315 5.49258 6.3012 6.5H2.80423C3.80285 4.45074 5.65108 2.89163 7.89053 2.28104ZM12.1095 2.28105C12.4231 2.70725 12.6996 3.22225 12.9372 3.79922C13.2579 4.57814 13.5169 5.49258 13.6988 6.5H17.1958C16.1972 4.45074 14.3489 2.89163 12.1095 2.28105ZM17.6016 7.5H13.85C13.9107 7.99254 13.9537 8.50211 13.9777 9.02448C14.1496 9.00828 14.3239 9 14.5 9C15.8278 9 17.0457 9.47051 17.996 10.2539C17.9987 10.1696 18 10.085 18 10C18 9.12694 17.8601 8.28655 17.6016 7.5ZM12.8421 7.5C12.9132 8.04636 12.9618 8.61899 12.9848 9.21136C11.3303 9.6845 9.9947 10.913 9.37494 12.5H7.15793C7.0557 11.7145 7 10.8747 7 10C7 9.1253 7.0557 8.28549 7.15793 7.5H12.8421ZM7.31842 13.5H9.09069C9.03112 13.8243 9 14.1585 9 14.5C9 15.8164 9.46247 17.0248 10.2338 17.9715C10.154 17.9909 10.076 18 10 18C9.69311 18 9.35398 17.8511 8.99591 17.4832C8.6363 17.1139 8.28942 16.5533 7.98747 15.82C7.71458 15.1573 7.48643 14.3731 7.31842 13.5ZM7.89053 17.719C5.65107 17.1084 3.80285 15.5493 2.80423 13.5H6.3012C6.48315 14.5074 6.74205 15.4219 7.06279 16.2008C7.30036 16.7778 7.57693 17.2928 7.89053 17.719ZM2.39838 12.5H6.14996C6.0521 11.7051 6 10.8658 6 10C6 9.13416 6.0521 8.2949 6.14996 7.5H2.39838C2.13985 8.28655 2 9.12694 2 10C2 10.8731 2.13985 11.7135 2.39838 12.5ZM19 14.5C19 16.9853 16.9853 19 14.5 19C12.0147 19 10 16.9853 10 14.5C10 12.0147 12.0147 10 14.5 10C16.9853 10 19 12.0147 19 14.5ZM15 12.5C15 12.2239 14.7761 12 14.5 12C14.2239 12 14 12.2239 14 12.5V14H12.5C12.2239 14 12 14.2239 12 14.5C12 14.7761 12.2239 15 12.5 15H14V16.5C14 16.7761 14.2239 17 14.5 17C14.7761 17 15 16.7761 15 16.5V15H16.5C16.7761 15 17 14.7761 17 14.5C17 14.2239 16.7761 14 16.5 14H15V12.5Z" fill="#212121"/>
</svg>

<svg xmlns="http://www.w3.org/2000/svg" width="20" height="20"><path d="M7.987 4.18a12.213 12.213 0 0 0-.669 2.32h5.364a12.21 12.21 0 0 0-.67-2.32c-.301-.733-.648-1.294-1.008-1.663C10.646 2.149 10.307 2 10 2c-.307 0-.646.149-1.004.517-.36.37-.707.93-1.009 1.663Zm-.096-1.899c-.314.426-.59.941-.828 1.518-.32.78-.58 1.694-.762 2.701H2.804a8.02 8.02 0 0 1 5.087-4.219Zm4.219 0c.313.426.59.941.827 1.518.32.78.58 1.694.762 2.701h3.497a8.02 8.02 0 0 0-5.087-4.219ZM17.602 7.5H13.85c.06.493.104 1.002.128 1.524a5.477 5.477 0 0 1 4.018 1.23 7.994 7.994 0 0 0-.394-2.754Zm-4.76 0c.071.546.12 1.119.143 1.711a5.514 5.514 0 0 0-3.61 3.289H7.158A19.438 19.438 0 0 1 7 10c0-.875.056-1.715.158-2.5h5.684Zm-5.524 6h1.773c-.06.324-.091.659-.091 1 0 1.316.462 2.525 1.234 3.471A.987.987 0 0 1 10 18c-.307 0-.646-.149-1.004-.517-.36-.37-.707-.93-1.009-1.663a12.211 12.211 0 0 1-.669-2.32Zm.573 4.219A8.02 8.02 0 0 1 2.804 13.5h3.497c.182 1.007.441 1.922.762 2.7.237.578.514 1.093.828 1.519ZM2.398 12.5H6.15A20.524 20.524 0 0 1 6 10c0-.866.052-1.705.15-2.5H2.398A7.993 7.993 0 0 0 2 10c0 .873.14 1.713.398 2.5ZM19 14.5a4.5 4.5 0 1 1-9 0 4.5 4.5 0 0 1 9 0Zm-4-2a.5.5 0 0 0-1 0V14h-1.5a.5.5 0 0 0 0 1H14v1.5a.5.5 0 0 0 1 0V15h1.5a.5.5 0 0 0 0-1H15v-1.5Z"/></svg>
